public/avatar/item1/7.svg

<svg xmlns:xlink="http://www.w3.org/1999/xlink" height="65.4" width="80.15" xmlns="http://www.w3.org/2000/svg"><use height="24.05" transform="translate(40.2 25.45)" width="7.85" xlink:href="#a"/><defs><g id="a" fill-rule="evenodd"><path d="m12.45 29.7 1.55-.25q.7 2.5 1.95 3.25.5.25.5.75-.25 1.75-1.5 2.25l-2-.25Q10.2 33.7 9.7 29.7h1.55q.45 3.25 2.5 4.25.25.3.7.3l.25-.55q-1.5-1.75-2.25-4" fill="#0a0007" transform="translate(-8.6 -11.65)"/><path d="m12.45 14.5.25-2q0-.5.5-.75.25-.25 1 .25 2 2.5 1.25 5-2.5 7.95-1.45 12.45l-1.55.25-.25-3.25q0-4.25 2-9.95v-.75l-.2-1V15q-3.55 11-2.75 14.7H9.7q-.5-5 2.75-15.2" fill="#330019" transform="translate(-8.6 -11.65)"/><path d="M10.45 23q4-1.3 4 2.2 0 1.75-3.7 1.75-1.3 0-1.8-1.75-.45-.5 1.5-2.2" transform="translate(-8.6 -11.65)"/><path d="M13.2 29.7h-2.75q-.5-5 2.75-14.95l.25-2.25q2 2.25 1.5 4.25Q12.2 24.7 13.2 29.7" fill="#c40096" transform="translate(-8.6 -11.65)"/><path d="M13.2 29.7q.8 3 2.5 3.75-.5 2.5-2.5 1.25-2.2-1.25-2.75-5h2.75" fill="#6b0052" transform="translate(-8.6 -11.65)"/><path d="M13.45 18.45q-2 5.25-.75 11h-1q-1.25-6.2.75-11.2L14 14.5l.7.75-1.25 3.2" fill="#ffa1f4" transform="translate(-8.6 -11.65)"/><path d="m13.2 31.7 2 2.25-.75.5q-1 0-2-2.25l-.75-2.75h1q0 1 .5 2.25" fill="#b572ad" transform="translate(-8.6 -11.65)"/><path d="m14 23.7-2.55-.45q-2-.25-1.5 3l3.25.2q1.25 0 .8-2.75m-2.75-1.75q3.7.25 3.95 1.05.25 4.7-1.75 4.7l-4.7-.75q-.25-1.75 0-2.75.7-2.5 2.5-2.25" fill="#330024" transform="translate(-8.6 -11.65)"/><path d="M14 25.5q.2-.3.95-.3 0 1.05-.75 2-1 .75-2.95.25 0-.75.95-.75l1.25-.25.55-.95M9.2 23q.75-1.8 3.5-.8l-.75.8q-.95-.5-1.5.25-.5.95-1.25-.25" fill="#6b0052" transform="translate(-8.6 -11.65)"/></g></defs></svg>

<?xml version="1.0" encoding="UTF-8" standalone="no"?>
<svg xmlns:xlink="http://www.w3.org/1999/xlink" height="65.4px" width="80.15px" xmlns="http://www.w3.org/2000/svg">
  <g transform="matrix(1.0, 0.0, 0.0, 1.0, 31.6, 13.8)">
    <use height="24.05" transform="matrix(1.0, 0.0, 0.0, 1.0, 8.6, 11.65)" width="7.85" xlink:href="#shape0"/>
  </g>
  <defs>
    <g id="shape0" transform="matrix(1.0, 0.0, 0.0, 1.0, -8.6, -11.65)">
      <path d="M12.45 29.7 L14.0 29.45 Q14.7 31.95 15.95 32.7 16.45 32.95 16.45 33.45 16.2 35.2 14.95 35.7 L12.95 35.45 Q10.2 33.7 9.7 29.7 L11.25 29.7 Q11.7 32.95 13.75 33.95 14.0 34.25 14.45 34.25 L14.7 33.7 Q13.2 31.95 12.45 29.7" fill="#0a0007" fill-rule="evenodd" stroke="none"/>
      <path d="M12.45 14.5 L12.7 12.5 Q12.7 12.0 13.2 11.75 13.45 11.5 14.2 12.0 16.2 14.5 15.45 17.0 12.95 24.95 14.0 29.45 L12.45 29.7 12.2 26.45 Q12.2 22.2 14.2 16.5 L14.2 15.75 14.0 14.75 14.0 15.0 Q10.45 26.0 11.25 29.7 L9.7 29.7 Q9.2 24.7 12.45 14.5" fill="#330019" fill-rule="evenodd" stroke="none"/>
      <path d="M10.45 23.0 Q14.45 21.7 14.45 25.2 14.45 26.95 10.75 26.95 9.45 26.95 8.95 25.2 8.5 24.7 10.45 23.0" fill="#000000" fill-rule="evenodd" stroke="none"/>
      <path d="M13.2 29.7 L10.45 29.7 Q9.95 24.7 13.2 14.75 L13.45 12.5 Q15.45 14.75 14.95 16.75 12.2 24.7 13.2 29.7" fill="#c40096" fill-rule="evenodd" stroke="none"/>
      <path d="M13.2 29.7 Q14.0 32.7 15.7 33.45 15.2 35.95 13.2 34.7 11.0 33.45 10.45 29.7 L13.2 29.7" fill="#6b0052" fill-rule="evenodd" stroke="none"/>
      <path d="M13.45 18.45 Q11.45 23.7 12.7 29.45 L11.7 29.45 Q10.45 23.25 12.45 18.25 L14.0 14.5 14.7 15.25 13.45 18.45" fill="#ffa1f4" fill-rule="evenodd" stroke="none"/>
      <path d="M13.2 31.7 L15.2 33.95 14.45 34.45 Q13.45 34.45 12.45 32.2 L11.7 29.45 12.7 29.45 Q12.7 30.45 13.2 31.7" fill="#b572ad" fill-rule="evenodd" stroke="none"/>
      <path d="M14.0 23.7 L11.45 23.25 Q9.45 23.0 9.95 26.25 L13.2 26.45 Q14.45 26.45 14.0 23.7 M11.25 21.95 Q14.95 22.2 15.2 23.0 15.45 27.7 13.45 27.7 L8.75 26.95 Q8.5 25.2 8.75 24.2 9.45 21.7 11.25 21.95" fill="#330024" fill-rule="evenodd" stroke="none"/>
      <path d="M14.0 25.5 Q14.2 25.2 14.95 25.2 14.95 26.25 14.2 27.2 13.2 27.95 11.25 27.45 11.25 26.7 12.2 26.7 L13.45 26.45 14.0 25.5" fill="#6b0052" fill-rule="evenodd" stroke="none"/>
      <path d="M9.2 23.0 Q9.95 21.2 12.7 22.2 L11.95 23.0 Q11.0 22.5 10.45 23.25 9.95 24.2 9.2 23.0" fill="#6b0052" fill-rule="evenodd" stroke="none"/>
    </g>
  </defs>
</svg>
